X:1
T:Ontario, 76.76.76 D
T:Ontario, 76.76.76 D
T:James Ellsworth Delmarter, 1903
T:Public Domain Courtesy of the Cyber Hymnal™
C:James Ellsworth Delmarter, 1903
Z:Public Domain
Z:Courtesy of the Cyber Hymnal™
%%score ( 1 2 ) ( 3 4 )
L:1/8
Q:1/4=100
M:6/8
K:C
V:1 treble 
V:2 treble 
V:3 bass 
V:4 bass 
V:1
 [CE] | [CE]2 [DF] [EG]2 [Ec] | [Fc]3 [FB]2 [FA] | [EG]2 [EG] [DF]2 [DF] | [CE]3- [CE]2 [CE] | %5
 [CE]2 [DF] [EG]2 [Ec] | [Fc]3 [FB]2 [FA] | [EG]2 [Ec] [FG]2 [Fd] | [Ec]3- [Ec]2 [EG] | %9
 [EG]2 [EG] [EA]2 [EG] | [^D^F]3 [EG]2 [EG] | [DF]2 [DF] [DE]2 [DE] | [CA]3- [CA]2 [FG] | %13
 [EG]2 [EG] [Gc]2 G | [Ac]2 [GB] !fermata![FA]2 [^DA] |"^riten." [EG]2 [EG] [FA]2 [FB] | [Ec]6 | %17
 [FG]2 E [FG]2 [FA] | [FA]2 [EG] [EG]2 [Ec] | [DB]2 [CA] [B,G]2 [C^F] | G6 | [EG]2 E [Ec]2 G | %22
 [Ac]2 [GB] !fermata![FA]2 [^DA] |"^riten." [EG]2 [EG] [FA]2 [FB] | [Ec]3- [Ec]2 |] %25
V:2
 x | x6 | x6 | x6 | x6 | x6 | x6 | x6 | x6 | x6 | x6 | x6 | x6 | x5 G | x6 | x6 | x6 | x6 | x6 | %19
 x6 | (B,3 F3) | x5 G | x6 | x6 | x5 |] %25
V:3
 [C,G,] | [C,G,]2 [C,G,] [C,C]2 [C,C] | [D,G,]3 [D,G,]2 [B,,G,] | [C,C]2 [C,C] [G,,B,]2 [G,,G,] | %4
 [C,G,]3- [C,G,]2 [C,G,] | [C,G,]2 [C,G,] [C,C]2 [C,C] | [D,G,]3 [D,G,]2 [B,,G,] | %7
 [C,C]2 [C,G,] [C,G,]2 [G,,G,] | [C,G,]3- [C,G,]2 [C,C] | [C,C]2 [C,C] [C,C]2 [C,C] | %10
 [C,A,]3 (G,C)[^C,_B,] | [D,A,]2 [D,A,] [E,^G,]2 [E,G,] | [A,,A,]3- [A,,A,]2 [B,,D] | %13
 [C,C]2 [C,C] [E,C]2 [E,C] | [F,C]3 !fermata![F,C]2 [^F,C] | [G,C]2 [G,C] [G,,B,]2 [G,,G,] | %16
 [C,G,]6 | [G,B,]2 [G,C] [G,D]2 [G,B,] | [C,C]2 [C,C] [C,C]2 [C,G,] | %19
 [D,G,]2 [D,^F,] [D,G,]2 [D,A,] | G,3 [G,B,]3 | [E,C]2 [C,G,] [C,G,]2 [E,C] | %22
 [F,C]2 [F,C] !fermata![F,C]2 [^F,C] | [G,C]2 [G,C] [G,,B,]2 [G,,G,] | [C,G,]3- [C,G,]2 |] %25
V:4
 x | x6 | x6 | x6 | x6 | x6 | x6 | x6 | x6 | x6 | x3 ^C,2 x | x6 | x6 | x6 | x6 | x6 | x6 | x6 | %18
 x6 | x6 | G,3- x3 | x6 | x6 | x6 | x5 |] %25

